brandFactory_export/3.Masa/Target _3Masa.svg

<?xml version="1.0" encoding="UTF-8"?>
<svg width="24px" height="24px" viewBox="0 0 24 24" version="1.1" xmlns="http://www.w3.org/2000/svg" xmlns:xlink="http://www.w3.org/1999/xlink">
    <title>3.Masa/Target _3Masa</title>
    <g id="Symbols" stroke="none" stroke-width="1" fill="none" fill-rule="evenodd">
        <g id="3.Masa/Target-_3Masa" fill="#5CB615" fill-rule="nonzero">
            <path d="M19.0655462,12.5714286 C18.6722689,12.5714286 18.3462185,12.2453782 18.3462185,11.8521008 C18.3462185,11.4487395 18.6722689,11.1327731 19.0655462,11.1327731 L19.6201681,11.1327731 C19.2941176,5.06554622 14.6016807,4.0302521 12.5344538,3.87563025 L12.5344538,4.59495798 C12.5344538,4.99831933 12.2084034,5.31428571 11.8151261,5.31428571 C11.4117647,5.31428571 11.0957983,4.99831933 11.0957983,4.59495798 L11.0957983,3.85546218 C9.22352941,3.90252101 4.15798319,4.68235294 3.8487395,11.1327731 L4.56134454,11.1327731 C4.96470588,11.1327731 5.28067227,11.4487395 5.28067227,11.8521008 C5.28067227,12.2453782 4.96470588,12.5714286 4.56134454,12.5714286 L3.85882353,12.5714286 C4.27226891,18.7529412 9.17647059,19.5865546 11.0957983,19.6739496 L11.0957983,19.0991597 C11.0957983,18.7058824 11.4117647,18.3798319 11.8151261,18.3798319 C12.2084034,18.3798319 12.5344538,18.7058824 12.5344538,19.0991597 L12.5344538,19.6571429 C14.5613445,19.5327731 19.2268908,18.5546218 19.610084,12.5747899 L19.0655462,12.5747899 L19.0655462,12.5714286 Z M22.9042017,11.1294118 C23.307563,11.1294118 23.6235294,11.4453782 23.6235294,11.8487395 C23.6235294,12.2420168 23.307563,12.5680672 22.9042017,12.5680672 L21.0521008,12.5680672 C20.6386555,19.9596639 14.5546218,20.9680672 12.5378151,21.092437 L12.5378151,22.9344538 C12.5378151,23.3378151 12.2117647,23.6537815 11.8184874,23.6537815 C11.4151261,23.6537815 11.0991597,23.3378151 11.0991597,22.9344538 L11.0991597,21.1092437 C9.27731092,21.0319328 2.87394958,20.2084034 2.42016807,12.5647059 L0.722689076,12.5647059 C0.329411765,12.5647059 0.00336134454,12.2386555 0.00336134454,11.8453782 C0.00336134454,11.4420168 0.329411765,11.1260504 0.722689076,11.1260504 L2.41008403,11.1260504 C2.74621849,3.18655462 9.3512605,2.45714286 11.0957983,2.4 L11.0957983,0.749579832 C11.0957983,0.356302521 11.4117647,0.0302521008 11.8151261,0.0302521008 C12.2084034,0.0302521008 12.5344538,0.356302521 12.5344538,0.749579832 L12.5344538,2.4302521 C14.5983193,2.57478992 20.702521,3.6605042 21.0588235,11.1260504 L22.9042017,11.1260504 L22.9042017,11.1294118 Z M14.2823529,9.22016807 C14.2823529,10.0638655 14.0504202,10.7092437 13.6,11.1394958 C13.1596639,11.5529412 12.5344538,11.7647059 11.7277311,11.7647059 C10.9210084,11.7647059 10.2957983,11.5529412 9.86554622,11.1394958 C9.41512605,10.7058824 9.18319328,10.0638655 9.18319328,9.22016807 C9.18319328,8.38655462 9.41512605,7.74117647 9.86554622,7.31092437 C10.2991597,6.88739496 10.9210084,6.6789916 11.7277311,6.6789916 C12.5344538,6.6789916 13.1596639,6.8907563 13.6,7.31092437 C14.0537815,7.74117647 14.2823529,8.38655462 14.2823529,9.22016807 Z M16.2588235,15.707563 L16.2588235,16.5613445 C16.2588235,16.7159664 16.1243697,16.8470588 15.9596639,16.8470588 L7.49579832,16.8470588 C7.34117647,16.8470588 7.20672269,16.712605 7.20672269,16.5613445 L7.20672269,15.707563 C7.20672269,14.9008403 7.45546218,14.2117647 7.93613445,13.7109244 C8.45378151,13.1663866 9.23361345,12.887395 10.1714286,12.887395 L13.2806723,12.887395 C14.2218487,12.887395 14.9983193,13.1663866 15.5159664,13.7109244 C16,14.2117647 16.2588235,14.9042017 16.2588235,15.707563 L16.2588235,15.707563 Z" id="Target-_3Masa"></path>
        </g>
    </g>
</svg>

<svg width="24" height="24" viewBox="0 0 24 24" xmlns="http://www.w3.org/2000/svg"><path d="M19.066 12.571a.725.725 0 01-.72-.719c0-.403.326-.72.72-.72h.554c-.326-6.066-5.018-7.102-7.086-7.256v.719c0 .403-.326.72-.719.72a.712.712 0 01-.72-.72v-.74c-1.871.048-6.937.827-7.246 7.278h.712c.404 0 .72.316.72.72 0 .392-.316.718-.72.718H3.86c.413 6.182 5.317 7.016 7.237 7.103v-.575c0-.393.316-.72.72-.72.392 0 .718.327.718.72v.558c2.027-.124 6.693-1.102 7.076-7.082h-.544v-.004zm3.838-1.442c.404 0 .72.316.72.72 0 .393-.316.72-.72.72h-1.852c-.413 7.39-6.497 8.4-8.514 8.523v1.842c0 .404-.326.72-.72.72a.712.712 0 01-.719-.72V21.11c-1.822-.077-8.225-.9-8.679-8.544H.723a.725.725 0 01-.72-.72c0-.403.326-.719.72-.719H2.41c.336-7.94 6.941-8.669 8.686-8.726V.75c0-.394.316-.72.72-.72.392 0 .718.326.718.72v1.68c2.064.145 8.169 1.23 8.525 8.696h1.845v.003zM14.282 9.22c0 .844-.232 1.49-.682 1.92-.44.413-1.066.625-1.872.625-.807 0-1.432-.212-1.862-.626-.45-.433-.683-1.075-.683-1.919 0-.833.232-1.479.683-1.91.433-.423 1.055-.631 1.862-.631.806 0 1.432.212 1.872.632.454.43.682 1.076.682 1.91zm1.977 6.488v.853a.295.295 0 01-.3.286H7.497a.295.295 0 01-.29-.286v-.853c0-.807.25-1.496.73-1.997.518-.545 1.298-.824 2.235-.824h3.11c.94 0 1.717.28 2.235.824.484.5.743 1.193.743 1.997z" fill="#5CB615" fill-rule="nonzero"/></svg>
